X:375
T:Banks of the Lough Gowna
R:jig
Z:Transcribed by Dave Marshall
M:6/8
K:Bminor
|: ~B3 BAF | ~F3 DFA | ~B3 BAF | d2e fed |
~B3 BAF | ~F3 DFA | def gfg | fdB B3 :|
|:def ~a3 | afb afe | dFA def | ~g3 fdB |
def ~a3 | afb afe | def gfg | fdB B3 :|
